assets/img/card-2.svg

<svg width="220" height="160" viewBox="0 0 220 160" fill="none" xmlns="http://www.w3.org/2000/svg">
<path d="M109.492 73.7881C108.421 74.9672 107.335 76.3024 106.232 77.7938C96.7993 90.5279 87.4718 103.119 78.2495 115.566C78.1181 115.745 78.0386 115.957 78.0195 116.179C78.0003 116.4 78.0424 116.623 78.141 116.822C78.2396 117.021 78.391 117.189 78.5787 117.308C78.7664 117.427 78.9832 117.493 79.2055 117.497C82.5451 117.554 85.8402 117.605 89.0906 117.65C92.22 117.688 93.7146 119.326 93.5743 122.564C93.2748 129.766 93.2047 137.032 93.364 144.361C93.3713 144.683 93.3117 145.002 93.189 145.299C93.0663 145.597 92.8833 145.865 92.6514 146.088C92.4196 146.311 92.144 146.483 91.842 146.594C91.5401 146.705 91.2185 146.752 90.8975 146.732C88.9568 146.617 86.9301 146.397 84.9416 146.416C70.3847 146.563 55.831 146.582 41.2804 146.474C36.9306 146.436 32.4086 145.996 28.3551 144.485C-0.392172 133.778 -3.28889 95.5565 23.4986 80.1838C24.6936 79.4955 25.3437 77.9945 25.6209 76.5223C27.8198 65.0692 32.4469 56.1688 41.2231 49.0752C53.3453 39.2665 70.1903 36.8095 84.54 43.3582C86.2927 44.1549 88.0581 44.9324 89.8363 45.6909C90.1662 45.8324 90.5386 45.8387 90.8743 45.7083C91.2101 45.5779 91.4825 45.3213 91.6336 44.993C98.8898 29.104 112.111 18.7982 129.157 14.4579C142.494 11.0545 157.426 13.8843 169.549 20.0984C172.181 21.4496 176.024 24.5407 181.078 29.3717C187.484 35.4998 192.273 42.6316 194.615 51.2166C197.416 61.4651 198.554 69.878 196.977 80.4515C196.961 80.5571 196.966 80.6649 196.992 80.7685C197.018 80.8721 197.064 80.9695 197.128 81.055C197.192 81.1405 197.273 81.2123 197.365 81.2663C197.457 81.3202 197.559 81.3553 197.665 81.3693C198.398 81.4713 199.134 81.7867 199.873 82.3157C208.822 88.6732 214.185 97.8892 214.921 108.922C216.021 125.422 205.523 140.193 189.95 145.002C186.846 145.964 182.171 146.467 175.925 146.512C160.272 146.62 144.657 146.573 129.081 146.369C128.461 146.361 127.869 146.11 127.433 145.67C126.996 145.23 126.75 144.636 126.748 144.017L126.557 120.614C126.544 118.555 127.567 117.532 129.626 117.545L140.964 117.631C141.092 117.631 141.218 117.602 141.333 117.545C141.447 117.489 141.547 117.406 141.624 117.304C141.701 117.202 141.753 117.083 141.777 116.957C141.8 116.832 141.793 116.702 141.757 116.579C141.471 115.585 140.945 114.568 140.18 113.53C134.221 105.429 128.23 97.3538 122.207 89.3042C119.262 85.3654 114.779 78.788 110.467 73.8072C110.142 73.4312 109.817 73.4248 109.492 73.7881Z" fill="#3640D5"/>
</svg>

<svg xmlns="http://www.w3.org/2000/svg" width="220" height="160" fill="none">
  <path fill="#3640D5" d="M109.492 73.788a51.557 51.557 0 0 0-3.26 4.006c-9.433 12.734-18.76 25.325-27.983 37.772a1.21 1.21 0 0 0 .33 1.742c.187.119.404.185.627.189 3.34.057 6.634.108 9.885.153 3.129.038 4.624 1.676 4.483 4.914-.3 7.202-.37 14.468-.21 21.797a2.317 2.317 0 0 1-.713 1.727 2.323 2.323 0 0 1-1.754.644c-1.94-.115-3.967-.335-5.955-.316a2492.12 2492.12 0 0 1-43.662.058c-4.35-.038-8.871-.478-12.925-1.989C-.392 133.778-3.289 95.556 23.5 80.184c1.195-.688 1.845-2.19 2.122-3.662C27.82 65.07 32.447 56.17 41.223 49.075 53.345 39.266 70.19 36.81 84.54 43.358c1.753.797 3.518 1.574 5.296 2.333.33.141.703.148 1.038.017a1.39 1.39 0 0 0 .76-.715c7.256-15.889 20.477-26.195 37.523-30.535 13.337-3.403 28.269-.574 40.392 5.64 2.632 1.352 6.475 4.443 11.529 9.274 6.406 6.128 11.195 13.26 13.537 21.845 2.801 10.248 3.939 18.661 2.362 29.234a.806.806 0 0 0 .688.918c.733.102 1.469.418 2.208.947 8.949 6.357 14.312 15.573 15.048 26.606 1.1 16.5-9.398 31.271-24.971 36.08-3.104.962-7.779 1.465-14.025 1.51-15.653.108-31.268.061-46.844-.143a2.363 2.363 0 0 1-2.333-2.352l-.191-23.403c-.013-2.059 1.01-3.082 3.069-3.069l11.338.086a.83.83 0 0 0 .66-.327.82.82 0 0 0 .133-.725c-.286-.994-.812-2.011-1.577-3.049a3697.755 3697.755 0 0 0-17.973-24.226c-2.945-3.939-7.428-10.516-11.74-15.497-.325-.376-.65-.382-.975-.019Z"/>
</svg>
